X:1
T:Not Yet
T:Not Yet
T:Robert Lowry
T:Fanny Crosby, 1875
T:Public Domain Courtesy of the Cyber Hymnal™
T:Public Domain Courtesy of the Cyber Hymnal™
C:Robert Lowry
Z:Public Domain
Z:Courtesy of the Cyber Hymnal™
%%score ( 1 2 ) ( 3 4 )
L:1/8
Q:1/4=93
M:6/8
K:G
V:1 treble 
V:2 treble 
V:3 bass 
V:4 bass 
V:1
 [GB] | [GB]2 [GB]/[GB]/ (GA)[GB] | [FA]3 G2 G | [EG]2 [EG]/[EG]/ ([EG][^DF])[EG] | %4
w: 1.~Not|yet is the sum- * mer|end- ed, Not|yet is the har- * vest|
w: 2.~Not|yet have the sheaves * been|ga- thered; But|oh! it will not * be|
w: 3.~Not|yet is the hand * of|mer- cy Re-|moved from the o- * pen|
w: 4.~O|come, as the Lord * com-|mand- eth; Not|yet is the har- * vest|
 [FA]3- [FA]2 [FA]/[FA]/ | [FA]>[FA][FA] ([FA][GB])[Ac] | [Bd]3 [GB]2 [DG]/[DG]/ | %7
w: past; * But the|fields with the grain * are|gold- en, And the|
w: long * Till a|sound from the fields * shall|reach thee, Of the|
w: door; * There is|time for thy soul’s * re-|turn- ing Ere the|
w: past, * And the|sum- mer is not * yet|end- ed; But the|
 [DF]2 [EG] [DF]2 [^CE] | D3- D2 ||"^Refrain" D | [Dc]2 [DB] [DA]2 D/D/ | %11
w: days are wan- ing|fast. *|||
w: reap- er’s hap- py|song. *|||
w: day of grace is|o’er. *|Not|yet, not yet is the|
w: days are wan- ing|fast. *|||
 ([CA][B,G])[DA] [DB][DG][DG] | [EG]2 [EG]/[EG]/ (AG)[CE] | [B,D]3- [B,D]2 [DG]/[DA]/ | %14
w: |||
w: |||
w: sum- * mer end- ed, Not|yet is the har- * vest|past; * But the|
w: |||
 [GB]>[GB][GB] [DG][=FA][FB] | [=Fd]3 [Ec]2 [EA]/[EA]/ | [DG]>[DF][DB] !fermata![DA]2 [DG] | %17
w: |||
w: |||
w: sea- son of hope will be|o- ver, And the|har- vest will come at|
w: |||
 [DG]3- [DG]4 |] %18
w: |
w: |
w: last. *|
w: |
V:2
 x | x3 G2 x | x3 G2 G | x6 | x6 | x6 | x6 | x6 | D3- D2 || D | x5 D/D/ | x6 | x3 E2 x | x6 | x6 | %15
 x6 | x6 | x7 |] %18
V:3
 [G,D] | [G,D]2 [G,D]/[G,D]/ (B,C)[G,D] | (D2 C) [G,,B,]2 [G,,B,] | %3
 [E,B,]2 [E,B,]/[E,B,]/ B,2 [E,B,] | [D,D]3- [D,D]2 [D,D]/[D,D]/ | [D,D]>[D,D][D,D] D2 [A,,D] | %6
 [G,,D]3 [G,,D]2 [G,,B,]/[G,,B,]/ | [A,,A,]2 [A,,A,] [A,,A,]2 [A,,G,] | [D,F,]3- [D,F,]2 || %9
 [D,F,] | [D,A,]2 [D,G,] [D,F,]2 [D,F,]/[D,F,]/ | (F,G,)[D,F,] G,[G,B,][G,B,] | %12
 [E,B,]2 [E,B,]/[E,B,]/ [C,C]2 [C,G,] | [G,,G,]3- [G,,G,]2 [G,B,]/[G,C]/ | %14
 [G,D]>[G,D][G,D] [G,B,][G,D]G, | [C,G,]3- [C,G,]2 [C,C]/[C,C]/ | %16
 [D,B,]>[D,A,][D,G,] !fermata![D,C]2 [G,,B,] | [G,,B,]3- [G,,B,]4 |] %18
V:4
 x | x3 G,2 x | D,3 x3 | x3 (E,B,,) x | x6 | x3 (C,B,,) x | x6 | x6 | x5 || x | x6 | D,2 G, x3 | %12
 x6 | x6 | x5 G, | x6 | x6 | x7 |] %18

